icons/mail-open-line.svg

<svg viewBox="0 0 24 24" fill="currentColor" xmlns="http://www.w3.org/2000/svg">
    <path d="M2.24283 6.85435L11.4895 1.3086C11.8062 1.11865 12.2019 1.11872 12.5185 1.30878L21.7573 6.85433C21.9079 6.9447 22 7.10743 22 7.28303V20C22 20.5523 21.5523 21 21 21H3C2.44772 21 2 20.5523 2 20V7.28315C2 7.10748 2.09218 6.94471 2.24283 6.85435ZM4 8.13261V19H20V8.13214L12.0037 3.33237L4 8.13261ZM12.0597 13.6983L17.3556 9.23532L18.6444 10.7647L12.074 16.3017L5.36401 10.7717L6.63599 9.2283L12.0597 13.6983Z"/>
</svg>

<svg xmlns="http://www.w3.org/2000/svg" viewBox="0 0 24 24">
    <g>
        <path fill="none" d="M0 0h24v24H0z"/>
        <path d="M2.243 6.854L11.49 1.31a1 1 0 0 1 1.029 0l9.238 5.545a.5.5 0 0 1 .243.429V20a1 1 0 0 1-1 1H3a1 1 0 0 1-1-1V7.283a.5.5 0 0 1 .243-.429zM4 8.133V19h16V8.132l-7.996-4.8L4 8.132zm8.06 5.565l5.296-4.463 1.288 1.53-6.57 5.537-6.71-5.53 1.272-1.544 5.424 4.47z"/>
    </g>
</svg>
